X:197
T:Polska efter Munter Johan
T:(SvL Jämtland 197)
R:Polska
S:Johan Olofsson Munter
O:Mattmar, Jämtland
B:Svenska Låtar Jämtland
N:SvL: Jfr Sahlin Peterson-Berger: 20 Jämtpolskor, nr 12.
M:3/4
L:1/8
K:G
vd2 "^4"(ed) cB|Ab a>g f>g|a>b (3g(ag) (3f(ga)|gb d4-|d2 (ed) cB|Ab ag fg|
ab (3g(ag) (3f(ga)|g2 G4:| |:vd2 (ed) cB|AG cB AG|FG DE FG|
(3A(Bc) (3B(AG) (A{BA}F)|d2 (ed) cB|AG cB AG|FG DE FG|(3(AFA) [GG,]4:|

